X:1
T:Title
%%score { 1 | ( 2 3 ) }
L:1/8
M:6/8
K:Bb
V:1 treble nm="Grand Piano"
V:2 bass 
V:3 bass 
V:1
 z3 z2[Q:1/4=100] [DF] | [DF]>[DG][DA] [DB][Ec][Fd] | cBG [DF]2 [DF] | [EG]>[FA][FB] ced | %4
 c3- c2 F | [DF]>[DG][DA] [DB][Ec][Fd] | [Ge]GB F2 [Fd] | [=Ec]>[GB][FA] [EG][EA][EG] | F3- F2 F | %9
 c>=Bc edc | [Ec][DB][EG] [DF]2 [DF] | [C=E]>[EG][GB] [Bd][Ac][GB] | A3- A2 G/F/ | %13
 [DF]>[DG][DA] [DB][Ec][Fd] | [Gf][Ge][Gc] BAF | d>cB cBA |[M:5/8] [DB]-[DB]- [DB]3 |] %17
V:2
 z3 z2 [B,,B,] | [B,,B,]>[B,,B,][B,,B,] [B,,B,][B,,B,][B,,B,] | %2
 [E,G,E][E,G,E][E,B,E] [B,,B,]2 [B,,B,] | [E,B,]>[E,C][D,B,] [F,A,F][F,CF][F,B,F] | %4
 [F,A,F]3- [F,A,F]2 [F,A,E] | [B,,B,]>[B,,B,][B,,B,] [B,,B,][B,,B,][B,,B,] | %6
 [E,B,][E,B,E][G,B,E] [B,D]2 [B,,B,] | [C,G,]>[C,C][C,C] [C,B,][C,C][C,B,] | %8
 [F,A,]3- [F,A,]2 [F,A,] | [F,A,F]>[F,_A,F][F,=A,F] [F,CF][F,B,F][F,E] | %10
 [B,,F,][B,,E,][B,,B,] [B,,B,]2 [B,,B,] | [C,G,]>[C,C][C,C] [C,C][C,C][C,C] | %12
 [F,CF]3- [F,CF]2 [F,E]/-[F,A,E]/ | [B,,B,]>[B,,B,][B,,B,] [B,,B,][B,,B,][B,,B,] | z3 .[F,F]3 | %15
 [B,F]>[F,A,E][G,B,D] [E,G,E][F,D][F,E] |[M:5/8] [B,,F,]-[B,,F,]- [B,,F,]3 |] %17
V:3
 x6 | x6 | x6 | x6 | x6 | x6 | x6 | x6 | x6 | x6 | x6 | x6 | z3 z2 .B, | x6 | %14
 [E,B,][E,B,][E,E] DC[F,A,] | x6 |[M:5/8] x5 |] %17

